X: 110
T:The Tipsy Sailor
M:6/8
K:Em
F:http://blackrosetheband.googlepages.com/ABCTUNES.ABC May 2009
L:1/8
D|"Em"E2B BAB|E2B BAB|"D"d2d dcB|"Bm"A2D DEF|"Em"E2B BAB|E2B BAB|"D"AdB AFA|1 "Bm"B2E "Em"E2D:|2 "Bm"B2E "Em"E3|
|"Em"eBe gfe|Bef gfe|"D"fdA FAd|"Bm"f3 agf|"Em"eBe gfe|Bef gfe|"D"fef "Bm"gfg|"Em"bge e3|
|"Em"eBe gfe|Bef gfe|"D"fdA FAd|"Bm"f3 agf| "Em"gba gfe|"D"fag fed|"Bm"(3Bcd B AFA|"Em"BEE E3||

